!!!!SEGMENT: pl-wtm--iii-41-637-4--001-002_joteyko-tadeusz--sonatine-h-moll-op-19-no-2-ii-ballade.krn
!!!cenid: 19xx:113
!!!COM: Joteyko, Tadeusz
!!!COM-rismID: pe50046072
!!!CDT: 1872-1932
!!!CNT: Polish
!!!OPR: Sonatine h-moll Op. 19 No. 2
!!!OTL: II. Ballade
!!!OMV: 002
!!!PDT:
!!!AGN: Secular; Sonata
!!!YEC: Copyright 2022 Narodowy Instytut Fryderyka Chopina (https://polishscores.org)
!!!YEM: License CC-BY-4.0 (https://creativecommons.org/licenses/by/4.0)
!!!SMS-siglum: PL-Wtm
!!!SMS-shelfmark: III.41.637-4
!!!SMS-variant:
!!!SMS-altvar:
!!!SMS-shelfwork: 001-002 M
!!!NIFC-rismSourceID: 1001141267
!!!NIFC-rismChildID: 1001141267
!!!NIFC-islandoraID: pl-wtm:20276
!!!URL-pdf-islandora: https://repozytorium.nifc.pl/islandora/object/pl-wtm%3A20276/datastream/PDF/view
!!!URL-scan: https://polish.musicsources.pl/pl/lokalizacje/galeria/druki-muzyczne/17524/4 @EN{Scan on Polish Music Sources Website} @PL{Skany w portalu Dziedzictwo Muzyki Polskiej w otwartym dostępie}
!!!IIIF:
!!!ONB-nifc: UWAGA: części Sonatiny: I. Allegro moderato, II. Ballade, III. Rondo alla Mazurka
!!!AIN: 1 piano
!!!key: A
**kern	**fing	**kern	**fing	**dynam
*part1	*part1	*part1	*part1	*part1
*staff2	*	*staff1	*	*
*I"[PIANO.]	*	*I"[PIANO.]	*	*
*I'[pf]	*	*I'[pf]	*	*
*ICklav	*	*ICklav	*	*
*Ipiano	*	*Ipiano	*	*
*clefG2	*	*clefG2	*	*
*k[f#c#g#]	*	*k[f#c#g#]	*	*
*A:	*	*A:	*	*
*M4/8	*	*M4/8	*	*
=1	=1	=1	=1	=1
*	*	*^	*	*
*	*below	*	*	*above	*
!	!	!LO:TX:a:B:t=Adagio.	!	!	!
!	!	!LO:TX:b:i:t=legato	!	!	!
4A/ 4e	2 5	8ee/L	4cc#\	1 2	pp
.	.	8aa/	.	5	.
4c#/ 4g#	1 3	8gg#/	8ee\L	2 4	.
.	.	8ee/J	8cc#\J	1 2	.
*	*	*v	*v	*	*
=2	=2	=2	=2	=2
2d/ 2f#	1 2	2a\ 2ff#	1 3	.
=3	=3	=3	=3	=3
8e/L	2	8cc#\L 8ee	3 5	.
8f#/	1	16.a\L	1	.
.	.	32b\JJk	2	.
8e/	.	8a\L 8cc#	1 3	.
8d/J 8e	2 3	8g#\J 8b	1 2	.
=4	=4	=4	=4	=4
*	*	*^	*	*
8c#/L 8e	1 2	2ee/	8a\L	5	<
8B/ 8d	1 3	.	8g#\ 8b	1 2	.
8A/ 8c#	2 4	.	8a\ 8cc#	1 3	.
8G#/J 8B	3 5	.	8b\J 8dd	2 4	[[
*	*	*v	*v	*	*
=5	=5	=5	=5	=5
8A/L	5	8cc#\L 8ee	3 5	.
8a/	1	8cc#\ 8aa	2 5	.
8g#/	.	8ee\ 8bb	1 3	.
8f#/J	3	8ee\J 8aa#X 8ccc#	4	.
=6	=6	=6	=6	=6
2d/	5	4.ff#\ 4.bb 4.fff#	5	>
.	.	16ddd\LL	3	.
.	.	16bb\JJ	2	]]
!!LO:LB:g=original	!	!	!	!
=7	=7	=7	=7	=7
*	*	*^	*	*
4c#/ 4e	1 4	8aa/L	4ee\	1 3	pp
.	.	16gg#/L	.	.	.
.	.	16aa/JJ	.	.	.
8d/L	3	16bb/LL	8ff#\L	1 4	.
.	.	16ccc#/	.	.	.
8d#X/J	2	16bb/	8ff#\J	.	.
.	.	16aa/JJ	.	.	.
*	*	*v	*v	*	*
=8	=8	=8	=8	=8
16e/LL	.	[4ee\ [4gg#	1 2	.
16e/	1	.	.	.
16d#X/	2	.	.	.
16e/JJ	.	.	.	.
16dn/LL	2	8ee\] 8gg#]	.	.
16e/	.	.	.	.
16B/	4	8r	.	.
16e/JJ	.	.	.	.
=9	=9	=9	=9	=9
*	*	*^	*	*
16A/LL	5	8ee/L	4cc#\	1 2	p
16B/	.	.	.	.	.
16c#/	.	8aa/	.	.	.
16d/JJ	.	.	.	.	.
16e/LL	1	8gg#/	8cc#\L	.	.
16f#/	3	.	.	.	.
16g#/	.	8ee/J	8cc#\J	.	.
16a/JJ	.	.	.	.	.
*	*	*v	*v	*	*
=10	=10	=10	=10	=10
16d/LL	3	2dd\ 2ff#	1 3	.
16A/	5	.	.	.
16B/	.	.	.	.
16c#/JJ	.	.	.	.
16d/LL	2	.	.	.
16c#/	.	.	.	.
16d/	.	.	.	.
16B/JJ	4	.	.	.
=11	=11	=11	=11	=11
16c#/LL	3	8a/L 8ee	.	.
16e/	1	.	.	.
16f#/	2	16.a/L	1	.
16fn/JJ	1	.	.	.
.	.	32b/JJk	.	.
16e/LL	2	8a/L 8cc#	1 3	.
16d#X/	3	.	.	.
16dn/	4	8g#/J 8b	.	.
16e/JJ	1	.	.	.
!!LO:LB:g=original	!	!	!	!
=12	=12	=12	=12	=12
*	*	*^	*	*
16c#/LL	2	2ee/	8a\L	5	.
16e/	1	.	.	.	.
16B/	3	.	8g#\ 8b	1 2	<
16e/JJ	.	.	.	.	.
16A/LL	4	.	8a\ 8cc#	.	.
16e/	.	.	.	.	.
16G#/	5	.	8b\J 8dd	.	.
16e/JJ	.	.	.	.	[[
*	*	*v	*v	*	*
=13	=13	=13	=13	=13
16A/LL	5	8cc#\L 8ee	3 5	.
16B/	.	.	.	.
16c#/	3	8ee\ 8aa	1 3	.
16e/JJ	1	.	.	.
16d/LL	2	8ee\ 8gg# 8bb	4	.
16e/	.	.	.	.
16c#/	.	8ee\J 8aa#X 8ccc#	4	.
16e/JJ	.	.	.	.
=14	=14	=14	=14	=14
16d/LL	2	4.ff#\ 4.bb 4.fff#	5	>
16e/	1	.	.	.
16f#/	2	.	.	.
16e/JJ	1	.	.	.
16d/LL	2	.	.	.
16c#/	3	.	.	.
16B/	4	16ff#\LL 16ddd	4	.
16d/JJ	2	16ff#\JJ 16bb	.	]]
=15	=15	=15	=15	=15
16e/LL	1	8ee\L 8aa 8ccc# 8eee	.	pp
16d/	.	.	.	.
16c#/	.	16ee\L 16aa	.	.
16B/JJ	4	16ee\JJ 16gg# 16bb	3	.
16A/LL	1	8ee\L 8aa 8ccc#	.	.
*clefF4	*	*	*	*
16E/	4	.	.	.
16F#/	.	8dd\J 8ee 8bb	.	.
16G#/JJ	.	.	.	.
=16	=16	=16	=16	=16
16A\LL	1	4cc#\ 4ee 4aa	.	.
16B\	4	.	.	.
16c#\	3	.	.	.
16e\JJ	2	.	.	.
8a\	1	8r	.	.
8r	.	8ee\	2	p
!!LO:LB:g=original	!	!	!	!
=17	=17	=17	=17	=17
(16AA\LL	5	[4ggn^\	4	.
16A\	1	.	.	.
16B\	3	.	.	.
16c#\J	2	.	.	.
8d\J)	1	16gg\LL]	.	.
.	.	16ff#\	.	.
8r	.	16ee\	.	.
.	.	16dd\JJ	1	.
=18	=18	=18	=18	=18
(16AA\LL	.	[4ee^\	5	.
16A\	.	.	.	.
16B\	.	.	.	.
16c#\J	.	.	.	.
8e\J)	.	16ee\LL]	.	.
.	.	16cc#\	3	.
8r	.	16b\	.	.
.	.	16a\JJ	.	.
=19	=19	=19	=19	=19
*	*	*^	*	*
(8G#\L	3	8dd/L	16dd\LL	5	.
.	.	.	16e\	.	.
8A\	.	8cc#/	16cc#\	4	.
.	.	.	16e\JJ	.	.
8B\	1	8b/	16b\LL	.	.
.	.	.	16e\	.	.
8c#\J)	2	8a/J	16a\	.	.
.	.	.	16e\JJ	.	.
=20	=20	=20	=20	=20	=20
(4cn\	1	4a/	16a\LL	.	.
.	.	.	16e\	.	>
.	.	.	16d#X\	.	.
.	.	.	16e\JJ	.	.
8B\)	2	8g#/	16g#\LL	.	.
.	.	.	16e\	.	.
8r	.	8r	16d#\	.	]
.	.	.	16e\JJ	.	.
=21	=21	=21	=21	=21	=21
(16EE\LL	5	[4dd^/	16dd\LL	5	.
16G#\	1	.	16e\	.	.
16A\	3	.	16f#\	.	.
16B\JJ	2	.	16g#\JJ	.	.
8c#\)	1	16dd/LL]	8a\	.	.
.	.	16cc#/	.	3	.
8r	.	16b/	8r	.	.
.	.	16a/JJ	.	.	.
!!LO:PB:g=original	!	!	!	!	!
=22	=22	=22	=22	=22	=22
(16AA#X\LL	5	[4ff#^/	16ff#\LL	5	<
16A#X\	1	.	16f#\	1	.
16B\	3	.	16g#\	2	.
16c#\JJ	.	.	16a#X\JJ	1	.
*	*	*	*	*below	*
8d\)	.	16ff#/LL]	8b\	2	.
*	*	*	*	*above	*
.	.	16ee/	.	4	.
8r	.	16dd/	8r	3	.
.	.	16cc#/JJ	.	2	[[
*	*	*v	*v	*	*
=23	=23	=23	=23	=23
16E#X/LL	3	16gg#^\LL	5	<
*clefG2	*	*	*	*
16e#X/	1	16cc#\	2	.
16f#/	4	16dd#X\	3	.
16g#/JJ	3	16ee#X\JJ	1	.
16a/LL	2	16ff#\LL	2	.
16cc#/	1	16aaM\	3	.
16b/	2	16gg#\	2	.
16a/JJ	1	16ff#\JJ	1	[[
=24	=24	=24	=24	=24
*^	*	*^	*	*
8r	4B\	.	4bb/	16dd#X\LL	5	>
.	.	.	.	16b\	1	.
(8f#/ 8a	.	1 2	.	16cc#\	.	.
.	.	.	.	16dd#\JJ	3	.
4e/) 4g#	4ryy	1 3	4ryy	16ee\LL	1	.
.	.	.	.	16ff#M>\	3	.
.	.	.	.	16ddn\	2	.
.	.	.	.	16b\JJ	1	]]
*v	*v	*	*	*	*	*
=25	=25	=25	=25	=25	=25
4A/ 4e	2 5	8ee/L	4cc#\	1 2	pp
.	.	8aa/	.	5	.
4c#/ 4g#	1 3	8gg#/	8ee\L	2 4	.
.	.	8ee/J	8cc#\J	1 2	.
*	*	*v	*v	*	*
=26	=26	=26	=26	=26
2d/ 2f#	1 2	2a\ 2ff#	1 3	.
=27	=27	=27	=27	=27
8e/L	2	8cc#\L 8ee	3 5	.
8f#/	.	16.a\L	.	.
.	.	32b\JJk	.	.
8e/	.	8a\L 8cc#	1 3	.
8d/J 8e	2 3	8g#\J 8b	1 2	.
!!LO:LB:g=original	!	!	!	!
=28	=28	=28	=28	=28
*	*	*^	*	*
8c#/L 8e	1 2	2ee/	8a\L	.	<
8B/ 8d	1 3	.	8g#\ 8b	1 2	.
8A/ 8c#	.	.	8a\ 8cc#	1 3	.
8G#/J 8B	.	.	8b\J 8dd	2 4	.
*	*	*v	*v	*	*
=29	=29	=29	=29	=29
8A/L	.	8cc#\L 8ee	3 5	[
8a/	1	8ee\ 8aa	1 3	.
8g#/	.	8ee\ 8bb	1 4	.
8f#/J	.	8ee\J 8aa#X 8ccc#	4	.
=30	=30	=30	=30	=30
2d/	5	16ff#\LL 16bb 16fff#	.	.
.	.	16eee#X\	3	.
.	.	16ggg#\	5	.
.	.	16fff#\JJ	3	>
.	.	16eeen\LL	2	.
.	.	16ddd\	1	.
.	.	16ccc#\	3	.
.	.	16bb\JJ	2	]]
=31	=31	=31	=31	=31
*	*	*^	*	*
8c#/L	3	8eee/L	8aa\L	.	pp
8d/	2	16.aa/L	8ff#\J	2 3	.
.	.	32bb/JJk	.	.	.
8e/	1	8ee\L 8aa 8ccc#	4ryy	.	.
*clefF4	*	*	*	*	*
8E/J	5	8dd\J 8gg# 8bb	.	.	.
*	*	*v	*v	*	*
=32	=32	=32	=32	=32
4A\	.	4cc#\ 4aa	.	.
4r	.	8r	.	.
.	.	8e/	.	.
*kcancel	*	*kcancel	*	*
!!LO:LB:g=original	!	!	!	!
=33||	=33||	=33||	=33||	=33||
*k[]	*	*k[]	*	*
*^	*	*^	*	*
*Xtuplet	*	*	*	*	*	*
!	!	!	!LO:TX:a:B:t=Agitato.	!LO:TUP:r=8	!	!
24AA/LL	8AA\L	5	8cc/L	24cc\LL	5	pp
24E/	.	.	.	24e\	.	.
24E/	.	.	.	24e\	.	.
24BB/	8BB\J	4	8b/J	24g#X\	4	.
24E/	.	.	.	24e\	.	.
24E/JJ	.	.	.	24e\JJ	.	.
!	!	!	!LO:TUP:a:problem:klamra kwadratowa	!LO:TUP:r=8	!	!
24C/LL	24C\LL	.	24a/LL	24a\LL	.	.
24E/	24r	.	24r	24e\	.	.
24BB/	24BB\J	.	24b/J	24g#\	.	.
24AA/	8AA\J	.	8cc/J	24a\	.	.
24E/	.	.	.	24e\	.	.
24E/JJ	.	.	.	24e\JJ	.	.
*	*	*	*v	*v	*	*
=34	=34	=34	=34	=34	=34
*tuplet	*	*	*	*	*
!LO:TUP:r=8	!	!	!	!	!
24D/LL	8D\L	2	8a\L 8ff	.	.
24E/	.	.	.	.	.
24E/	.	.	.	.	.
!	!LO:TUP:b:problem:klamra łukowa	!	!LO:TUP:a:problem:klamra kwadratowa	!	!
24C/	24C\L	.	24g#X\L 24ee	.	.
24E/	24r	.	24r	.	.
24BB/JJ	24BB\JJ	.	24g#\JJ 24dd	.	.
!LO:TUP:r=8	!	!	!LO:TUP:a:problem:klamra kwadratowa	!	!
24AA/LL	8AA\	.	24f#X\LL 24a 24dd#X	.	.
24E/	.	.	24r	.	.
24E/	.	.	24a\J 24dd# 24ff#X	.	.
24E/	8r	.	8dd#^\J 8ff# 8aa	.	.
24E/	.	.	.	.	.
[24E/JJ	.	.	.	.	.
=35	=35	=35	=35	=35	=35
!LO:TUP:r=8	!	!	!	!	!
24E/LL]	2AA\	.	8cc\L 8ee 8aa	.	.
24E/	.	.	.	.	.
24E/	.	.	.	.	.
24E/	.	.	8ee\J 8gg#X 8bb	.	.
24E/	.	.	.	.	.
24E/JJ	.	.	.	.	.
!LO:TUP:r=8	!	!	!LO:TUP:a:problem:klamra kwadratowa	!	!
24E/LL	.	.	24ee\LL 24aa 24ccc	.	.
24E/	.	.	24r	.	.
24E/	.	.	24ee\J 24bb 24ddd	.	.
24E/	.	.	8ee^\J 8ccc 8eee	.	.
24E/	.	.	.	.	.
24E/JJ	.	.	.	.	.
!!LO:LB:g=original	!	!	!	!	!
=36	=36	=36	=36	=36	=36
*	*	*	*^	*	*
!LO:TUP:r=8	!	!	!	!	!	!
24AA/LL	4AA\	.	8ff^\L 8ccc 8fff	4ryy	.	mf
24F/	.	.	.	.	.	.
24F/	.	.	.	.	.	.
!	!	!	!LO:TUP:a:problem:klamra kwadratowa	!	!	!
24F/	.	.	24ff\L 24aa	.	.	.
24F/	.	.	24r	.	.	.
24F/JJ	.	.	24ff\JJ 24bb	.	.	.
!LO:TUP:r=8	!	!	!	!	!	!
24C/LL	4C\	3	8ccc/L	4ee\	.	.
24G/	.	.	.	.	.	.
24G/	.	.	.	.	.	.
24G/	.	.	8gg/J	.	.	.
24G/	.	.	.	.	.	.
24G/JJ	.	.	.	.	.	.
=37	=37	=37	=37	=37	=37	=37
!LO:TUP:r=8	!	!	!	!	!	!
24GG#X/LL	4GG#\	5	8b^\L 8ee 8bb	4ryy	.	.
24E/	.	.	.	.	.	.
24E/	.	.	.	.	.	.
!	!	!	!LO:TUP:a:problem:klamra kwadratowa	!	!	!
24E/	.	.	24gg#X\L	.	.	.
24E/	.	.	24r	.	.	.
24E/JJ	.	.	24ee\JJ	.	.	.
!LO:TUP:r=8	!	!	!	!	!	!
24AA/LL	4AA\	4	8aa^/L	4cc\	.	.
24E/	.	.	.	.	.	.
24E/	.	.	.	.	.	.
24E/	.	.	8ee/J	.	2	.
24E/	.	.	.	.	.	.
24E/JJ	.	.	.	.	.	.
=38	=38	=38	=38	=38	=38	=38
!LO:TUP:r=8	!	!	!	!	!	!
24BB/LL	4BB\	3	8gg#X^/L	4b\	1 4	.
24E/	.	.	.	.	.	.
24E/	.	.	.	.	.	.
24E/	.	.	8ee/J	.	2	.
24E/	.	.	.	.	.	.
24E/JJ	.	.	.	.	.	.
!LO:TUP:r=8	!	!	!	!	!	!
24C/LL	4C\	2	8ggn^/L	4a\	5	.
24E/	.	.	.	.	.	.
24E/	.	.	.	.	.	.
24E/	.	.	8ee/J	.	3	.
24E/	.	.	.	.	.	.
24E/JJ	.	.	.	.	.	.
!!LO:LB:g=original	!	!	!	!	!	!
=39	=39	=39	=39	=39	=39	=39
!LO:TUP:r=8	!	!	!	!	!	!
24C#X/LL	4C#\	2	8ff#X^/L	8r	.	.
24E/	.	.	.	.	.	.
24E/	.	.	.	.	.	.
!	!	!	!LO:TUP:a:problem:klamra łukowa	!	!	!
24E/	.	.	24ee/L	8f#X\ 8a	.	.
24E/	.	.	24r	.	.	.
24E/JJ	.	.	24dd#X/JJ	.	.	.
!LO:TUP:r=8	!	!	!	!	!	!
24BB/LL	4BB\	3	8ee^/L	4g#X\	.	.
24E/	.	.	.	.	.	.
24E/	.	.	.	.	.	.
24E/	.	.	8b/J	.	.	.
24E/	.	.	.	.	.	.
24E/JJ	.	.	.	.	.	.
*	*	*	*v	*v	*	*
=40	=40	=40	=40	=40	=40
!LO:TUP:r=8	!	!	!	!	!
24BB/LL	4BB\	5	8b^>/L	5	.
24F#X/ 24A	.	.	.	.	.
24F#/ 24A	.	.	.	.	.
24F#/ 24A	.	.	8f#X/J	2	.
24F#/ 24A	.	.	.	.	.
24F#/JJ 24A	.	.	.	.	.
!LO:TUP:r=8	!	!	!	!	!
24EE/LL	4EE\	.	4e/	1	.
24E/	.	.	.	.	.
24E/	.	.	.	.	.
24E/	.	.	.	.	.
24E/	.	.	.	.	.
24E/JJ	.	.	.	.	.
=41	=41	=41	=41	=41	=41
32AA/LLL	4AA\	5	8c/L	2	p <
32E/	.	1	.	.	.
32D#X/	.	2	.	.	.
32E/JJ	.	1	.	.	.
32D#/LL	.	.	16.d/L	1	.
32E/	.	.	.	.	.
32D#/	.	.	.	.	.
32E/JJJ	.	.	32e/JJk	2	.
32AA/LLL	4AA\	.	8f/L	3	.
32E/	.	.	.	.	.
32D#/	.	.	.	.	.
32E/JJ	.	.	.	.	.
32D#/LL	.	.	8a/J	4	[[
32E/	.	.	.	.	.
32D#/	.	.	.	.	.
32E/JJJ	.	.	.	.	.
*v	*v	*	*	*	*
!!LO:LB:g=original	!	!	!	!
=42	=42	=42	=42	=42
*	*	*^	*	*
8GG#X\L 8E	2 5	2b/	32r	5	.
.	.	.	32e\LLL	1	.
.	.	.	32d#X\	2	.
.	.	.	32e\JJ	.	.
8B\	.	.	32d#\LL	.	.
.	.	.	32e\	.	.
.	.	.	32d#\	.	.
!	!	!	!	!	!LO:HP:a
.	.	.	32e\JJJ	.	>
8G#X\	.	.	32d#\LLL	.	.
.	.	.	32e\	.	.
.	.	.	32d#\	.	.
.	.	.	32e\JJ	.	.
8E\J	.	.	32f\LL	.	.
.	.	.	32e\	.	.
.	.	.	32d#\	.	.
.	.	.	32e\JJJ	.	]]
*	*	*v	*v	*	*
=43	=43	=43	=43	=43
*^	*	*	*	*
32AA/LLL	4AA\	.	8e/L	1	<
32E/	.	.	.	.	.
32D#X/	.	.	.	.	.
32E/JJ	.	.	.	.	.
32D#/LL	.	.	16.a/L	2	.
32E/	.	.	.	.	.
32D#/	.	.	.	.	.
32E/JJJ	.	.	32b/JJk	3	.
32AA/LLL	8AA\L	.	8cc\L	4	.
32E/	.	.	.	.	.
32D#/	.	.	.	.	.
32E/JJ	.	.	.	.	.
32AA/LL	8AA\J	.	8f#X\J 8a 8dd#X	5	[
32F#X/	.	.	.	.	.
32E#X/	.	.	.	.	.
32F#/JJJ	.	.	.	.	.
*v	*v	*	*	*	*
=44	=44	=44	=44	=44
*	*	*^	*	*
8GG#X\L 8G#X	.	2ee/	32r	5	.
.	.	.	32b\LLL	3	.
.	.	.	32a#X\	2	.
.	.	.	32b\JJ	.	.
8d\	1	.	32a#\LL	.	.
.	.	.	32b\	.	.
.	.	.	32a#\	.	.
.	.	.	32b\JJJ	.	.
8G#\	3	.	32a#\LLL	.	>
.	.	.	32b\	.	.
.	.	.	32a#\	.	.
.	.	.	32b\JJ	.	.
8E\J	5	.	32cc\LL	.	.
.	.	.	32b\	.	.
.	.	.	32a#\	.	.
.	.	.	32b\JJJ	.	]]
*	*	*v	*v	*	*
!!LO:PB:g=original	!	!	!	!
=45	=45	=45	=45	=45
*^	*	*	*	*
32C/LLL	4C\	5	8g\L 8ee	5	<
32G/	.	1	.	.	.
32F#X/	.	2	.	.	.
32G/JJ	.	.	.	.	.
32F#/LL	.	.	16.a\L 16.ff	1 3	.
32G/	.	.	.	.	.
32F#/	.	.	.	.	.
32G/JJJ	.	.	32ee\JJk 32gg	2 4	.
32Fn/LLL	8Fn\L	3	8ff\L 8aa	3 5	.
32A/	.	.	.	.	.
32G#X/	.	.	.	.	.
32A/JJ	.	.	.	.	.
32AA/LL	8AA\J	5	8ff\J 8ccc	1 4	[[
32A/	.	.	.	.	.
32G#/	.	.	.	.	.
32A/JJJ	.	.	.	.	.
=46	=46	=46	=46	=46	=46
32r	2BB\	.	2ff\ 2ddd	1 5	.
32G/LLL	.	.	.	.	.
32F#X/	.	.	.	.	.
32G/JJ	.	.	.	.	.
32F#/LL	.	.	.	.	.
32G/	.	.	.	.	.
32F#/	.	.	.	.	.
32G/JJJ	.	.	.	.	.
32F#/LLL	.	.	.	.	.
32G/	.	.	.	.	.
32F#/	.	.	.	.	.
32G/JJ	.	.	.	.	.
32A/LL	.	2	.	.	.
32G/	.	1	.	.	.
32F#/	.	2	.	.	.
32G/JJJ	.	1	.	.	.
*v	*v	*	*	*	*
=47	=47	=47	=47	=47
32GG/LLL	.	8ff\L 8ddd	.	<
32G/	.	.	.	.
32F#X/	.	.	.	.
32G/JJ	.	.	.	.
32F#/LL	.	16.ee\L 16.ccc#X	.	.
32G/	.	.	.	.
32F#/	.	.	.	.
32G/JJJ	.	32ff\JJk 32ddd	.	.
32F#/LLL	.	8gg\L 8eee	.	.
32G/	.	.	.	.
32F#/	.	.	.	.
32G/JJ	.	.	.	.
32F#/LL	.	8aa\J 8fff	.	.
32G/	.	.	.	.
32F#/	.	.	.	.
32G/JJJ	.	.	.	[[
!!LO:LB:g=original	!	!	!	!
=48	=48	=48	=48	=48
*^	*	*	*	*
32r	2C\	.	2aa\ 2eee	.	.
32A/LLL	.	1	.	.	.
32G#X/	.	2	.	.	.
32A/JJ	.	.	.	.	.
32G#/LL	.	.	.	.	.
32A/	.	.	.	.	.
32G#/	.	.	.	.	.
32A/JJJ	.	.	.	.	.
32G#/LLL	.	.	.	.	.
32A/	.	.	.	.	.
32G#/	.	.	.	.	.
32A/JJ	.	.	.	.	.
32B/LL	.	2	.	.	.
32A/	.	1	.	.	.
32G#/	.	2	.	.	.
32A/JJJ	.	1	.	.	.
=49	=49	=49	=49	=49	=49
32C/LLL	4C\	.	8aa\L 8eee	1 3	f
32A/	.	.	.	.	.
32G#X/	.	.	.	.	.
32A/JJ	.	.	.	.	.
32G#/LL	.	.	16.aa\L 16.ddd#X	2	.
32A/	.	.	.	.	.
32G#/	.	.	.	.	.
32A/JJJ	.	.	32aa\JJk 32eee	.	.
32C/LLL	4C\	.	8bb\L 8eee 8bbb	.	.
32A/	.	.	.	.	.
32G#/	.	.	.	.	.
32A/JJ	.	.	.	.	.
32G#/LL	.	.	8aa\J 8eee 8aaa	.	.
32A/	.	.	.	.	.
32G#/	.	.	.	.	.
32A/JJJ	.	.	.	.	.
*v	*v	*	*	*	*
=50	=50	=50	=50	=50
N(32BB\LLL	5	8bb\L 8eee 8ggg#X	.	.
32E\	3	.	.	.
32G#X\	2	.	.	.
32B\JJJ	1	.	.	.
8r	.	32e\LL	2	.
.	.	32g#X\	4	.
.	.	32b\	1	.
.	.	32ee\JJJ	2	.
4r	.	32gg#X\LLL	4	.
.	.	32bb\	1	.
.	.	32eee\	2	.
.	.	32ggg#X\JJ	4	.
.	.	8bbb\JN)	5	.
!!LO:LB:g=original	!	!	!	!
=51	=51	=51	=51	=51
*	*	*^	*	*
4BBB;/ 4BB	.	8d#;/L 8g#X	4A\ 4d#X	.	.
.	.	8f#X/J	.	.	.
32EE/LLL	.	4e/	4ryy	.	>
32E/	.	.	.	.	.
32D#X/	.	.	.	.	.
32E/JJ	.	.	.	.	.
32D#/LL	.	.	.	.	.
32E/	.	.	.	.	.
32D#/	.	.	.	.	.
32E/JJJ	.	.	.	.	]]
=52	=52	=52	=52	=52	=52
!	!	!LO:TX:b:i:t=ritard.	!	!	!
32Dn/LLL	2	8f/L	4e\	1 2	.
32E/	.	.	.	.	.
32D/	.	.	.	.	.
32E/JJ	.	.	.	.	.
32C#X/LL	2	8f#X/	.	3	<
32E/	.	.	.	.	.
32C#/	.	.	.	.	.
32E/JJJ	.	.	.	.	.
32Cn/LLL	3	8g/	8e\L	2 4	[ >
32E/	.	.	.	.	.
32C/	.	.	.	.	.
32E/JJ	.	.	.	.	.
32BB/LL	4	8g#X/J	8d\J	1 5	.
32E/	.	.	.	.	.
32BB/	.	.	.	.	.
32E/JJJ	.	.	.	.	]]
*	*	*v	*v	*	*
=53	=53	=53	=53	=53
*^	*	*	*	*
32AA/LLL	4AA\	5	8c/L	1	.
!LO:TX:a:i:t=a tempo	!	!	!	!	!
32E/	.	.	.	.	.
32D#X/	.	.	.	.	.
32E/JJ	.	.	.	.	.
32D#/LL	.	.	16.d/L	2	.
32E/	.	.	.	.	.
32D#/	.	.	.	.	.
32E/JJJ	.	.	32e/JJk	1	.
32AA/LLL	4AA\	.	8f/L	2	<
32E/	.	.	.	.	.
32D#/	.	.	.	.	.
32E/JJ	.	.	.	.	.
32D#/LL	.	.	8a/J	4	.
32E/	.	.	.	.	.
32D#/	.	.	.	.	.
32E/JJJ	.	.	.	.	[[
*v	*v	*	*	*	*
!!LO:LB:g=original	!	!	!	!
=54	=54	=54	=54	=54
*	*	*^	*	*
8GG#X/ 8E	.	2b/	32r	.	.
.	.	.	32e\LLL	1	.
.	.	.	32d#X\	2	.
.	.	.	32e\JJ	1	.
16.r	.	.	32d#\LL	.	.
.	.	.	32e\	.	.
.	.	.	32d#\	.	.
*clefG2	*	*	*	*	*
(32ee\	5	.	32e\JJJ	.	.
8bb\)	2	.	32d#\LLL	.	.
.	.	.	32e\	.	.
.	.	.	32d#\	.	.
.	.	.	32e\JJ	.	.
8r	.	.	32f\LL	2	.
.	.	.	32e\	1	.
.	.	.	32d#\	2	.
.	.	.	32e\JJJ	1	.
*	*	*v	*v	*	*
*clefF4	*	*	*	*
=55	=55	=55	=55	=55
*^	*	*	*	*
32AA/LLL	4AA\	.	8c/L 8a	.	.
32E/	.	.	.	.	.
32D#X/	.	.	.	.	.
32E/JJ	.	.	.	.	.
32D#/LL	.	.	16.d/L 16.b	.	>
32E/	.	.	.	.	.
32D#/	.	.	.	.	.
32E/JJJ	.	.	32e/JJk 32cc	.	.
32AA/LLL	4AA\	.	8f\L 8dd	.	.
32E/	.	.	.	.	.
32D#/	.	.	.	.	.
32E/JJ	.	.	.	.	.
32D#/LL	.	.	8a\J 8ff	.	.
32E/	.	.	.	.	.
32D#/	.	.	.	.	.
32E/JJJ	.	.	.	.	]]
*v	*v	*	*	*	*
=56	=56	=56	=56	=56
16GG#X\LL	.	32b/LLL 32ee	.	.
.	.	32e/	1	.
32r	.	32d#X/	2	.
(32E\JJk	2	32e/JJ	3	.
16B\LL)	1	32d#/LL	.	.
.	.	32e/	.	.
*clefG2	*	*	*	*
32r	.	32d#/	.	.
(32ee\JJk	5	32e/JJJ	.	.
8bb\)	2	32d#/LLL	.	.
.	.	32e/	.	.
.	.	32d#/	.	.
.	.	32e/JJ	3	.
8r	.	32f/LL	4	.
.	.	32e/	3	.
.	.	32d#/	2	.
.	.	32e/JJJ	1	.
*clefF4	*	*	*	*
!!LO:LB:g=original	!	!	!	!
=57	=57	=57	=57	=57
*	*	*^	*	*
8AA/L	5	8cc/L	32cc\LLL	5	mf
.	.	.	32e\	1	.
.	.	.	32d#X\	2	.
.	.	.	32e\JJ	1	.
8BB/	.	8b/	32b\LL	.	.
.	.	.	32e\	.	.
.	.	.	32d#\	.	.
.	.	.	32e\JJJ	.	.
8C/	.	8a/	32a\LLL	.	.
.	.	.	32e\	.	.
.	.	.	32d#\	.	.
.	.	.	32e\JJ	.	.
8BB/J	.	8g#X/J	32g#\LL	4	.
.	.	.	32e\	.	.
.	.	.	32d#\	.	.
.	.	.	32e\JJJ	.	.
=58	=58	=58	=58	=58	=58
8AA/L	5	8a/L	32a\LLL	5	.
.	.	.	32c\	2	.
.	.	.	32B\	1	.
.	.	.	32c\JJ	.	.
8E/	1	8g/	32gn\LL	5	.
.	.	.	32c\	.	.
.	.	.	32B\	.	.
.	.	.	32c\JJJ	.	.
8D/	.	8f/	32f\LLL	5	.
.	.	.	32B\	1	.
.	.	.	32A#X\	2	.
.	.	.	32B\JJ	1	.
8C/J	3	8e/J	32e\LL	5	.
!	!	!LO:SIC:v:s=32A	!	!	!
.	.	.	32A#\	1	.
.	.	.	32G#X\	2	.
.	.	.	32A#\JJJ	1	.
*	*	*v	*v	*	*
=59	=59	=59	=59	=59
32BB/LLL	4	8d/L	4	.
32E/	.	.	.	.
32D#X/	.	.	.	.
32E/JJ	.	.	.	.
32AA/LL	5	8c/J	.	>
32E/	.	.	.	.
32D#/	.	.	.	.
32E/JJJ	.	.	.	.
32GG#X/LLL	4	8B/L	2	.
32E/	.	.	.	.
32D#/	.	.	.	.
32E/JJ	.	.	.	.
32EE/LL	5	16.c/L	3	.
32E/	.	.	.	.
32D#/	.	.	.	.
32E/JJJ	.	32B/JJk	2	]
!!LO:PB:g=original	!	!	!	!
=60	=60	=60	=60	=60
*^	*	*	*	*
32r	2AA\	5	4A/	1	p
32E/LLL	.	1	.	.	.
32D#X/	.	.	.	.	.
32E/JJ	.	.	.	.	.
32D#/LL	.	.	.	.	.
32E/	.	.	.	.	.
32D#/	.	.	.	.	.
32E/JJJ	.	.	.	.	.
32F/LLL	.	.	4r	.	.
32E/	.	.	.	.	.
32D#/	.	.	.	.	.
32E/JJ	.	.	.	.	.
32F/LL	.	2	.	.	.
32E/	.	1	.	.	.
32D#/	.	2	.	.	.
32E/JJJ	.	1	.	.	.
*v	*v	*	*	*	*
=61	=61	=61	=61	=61
!	!	!	!	!LO:DY:a
!LO:TUP:a:r=8	!	!	!	!LO:HP:a
24r	.	(<2B-X/ (<2d [>2e	.	sf > ]]
24E/LL	2	.	.	.
24E/	1	.	.	.
!LO:TUP:b:r=8	!	!	!	!
24E/	.	.	.	.
24E/	.	.	.	.
24E/JJ	.	.	.	.
32F/LLL	.	.	.	.
32E/	.	.	.	.
32D#X/	.	.	.	.
32E/JJ	.	.	.	.
32F/LL	.	.	.	.
32E/	.	.	.	.
32D#/	.	.	.	.
32E/JJJ	.	.	.	.
=62	=62	=62	=62	=62
!LO:TUP:a:r=8	!	!	!	!LO:DY:a
24r	.	4A/) 4c) 4e]	.	p
24E/LL	.	.	.	.
24E/	.	.	.	.
!LO:TUP:a:r=8	!	!	!	!
24E/	.	.	.	.
24E/	.	.	.	.
24E/JJ	.	.	.	.
32F/LLL	.	4r	.	.
32E/	.	.	.	.
32D#X/	.	.	.	.
32E/JJ	.	.	.	.
32F/LL	.	.	.	.
32E/	.	.	.	.
32D#/	.	.	.	.
32E/JJJ	.	.	.	.
!!LO:LB:g=original	!	!	!	!
=63	=63	=63	=63	=63
!LO:TUP:b:r=8	!	!	!	!
24r	.	((2b-X\ 2dd [2ee	2 4 5	sf > ]]
24e\LL	.	.	.	.
24e\	.	.	.	.
!LO:TUP:b:r=8	!	!	!	!
24e\	.	.	.	.
24e\	.	.	.	.
24e\JJ	.	.	.	.
32f\LLL	.	.	.	.
32e\	.	.	.	.
32d#X\	.	.	.	.
32e\JJ	.	.	.	.
32f\LL	.	.	.	.
32e\	.	.	.	.
32d#\	.	.	.	.
32e\JJJ	.	.	.	.
=64	=64	=64	=64	=64
!LO:TUP:b:r=8	!	!LO:TX:b:i:t=molto rit.	!	!
24r	.	4a\)) 4cc#X 4ee]	.	.
24e\LL	.	.	.	.
24e\	.	.	.	.
!LO:TUP:b:r=8	!	!	!	!
24e\	.	.	.	.
24e\	.	.	.	.
24e\JJ	.	.	.	.
32f\LLL	.	4r	.	>]
32e\	.	.	.	.
32d#X\	.	.	.	.
32e\JJ	.	.	.	.
32f#X\LL	1	.	.	.
32e\	2	.	.	.
32dn\	3	.	.	.
32B\JJJ	4	.	.	.
=65||	=65||	=65||	=65||	=65||
*k[f#c#g#]	*	*k[f#c#g#]	*	*
*	*	*^	*	*
!	!	!LO:TX:a:B:t=Tempo I.	!	!	!
!	!	!LO:TX:b:i:t=sempre legato.	!	!	!
4A\	5	8ee/L	4cc#\	1 2	pp
.	.	8aa/	.	5	.
*clefG2	*	*	*	*	*
4c#/ 4g#	1 3	8gg#/	8ee\L	2 4	.
.	.	8ee/J	8cc#\J	1 2	.
*	*	*v	*v	*	*
=66	=66	=66	=66	=66
2d/ 2f#	1 2	16ff#\LL	4	.
.	.	16a\	1	.
.	.	16dd\	2	.
.	.	16ee\JJ	1	.
.	.	16ff#\LL	2	.
.	.	16aa\J	3	.
.	.	8ddd\J	5	.
!!LO:LB:g=original	!	!	!	!
=67	=67	=67	=67	=67
8e/L	2	8cc#/L 8ee	2 5	.
8f#/	1	16.a/L	.	.
.	.	32b/JJk	.	.
8e/	.	8a/L 8cc#	1 3	.
8d/J 8e	2 3	8g#/J 8b	1 2	.
=68	=68	=68	=68	=68
8c#/L 8e	1 2	16a/LL 16ee	2 4	.
.	.	16e/	.	.
8B/ 8d	1 3	16f#/	.	.
.	.	16g#/JJ	3	.
8A/ 8c#	.	16a\LL	1	.
.	.	16cc#\J	2	.
8G#/J 8B	3 5	8ee\J	4	.
=69	=69	=69	=69	=69
*	*	*^	*	*
8A/L	5	8ee/L	16ee\LL	2	.
.	.	.	16cc#\	1	<
8a/	.	8aa/	16aa\	5	.
.	.	.	16cc#\JJ	.	.
8g#/	.	8bb/	16bb\LL	3	.
.	.	.	16ee\	.	.
8f#/J	.	8ccc#/J	16aa#X\	4	.
.	.	.	16ee\JJ	.	[[
*	*	*v	*v	*	*
=70	=70	=70	=70	=70
2d/	5	16ff#\LL 16bb 16fff#	.	.
.	.	16eee#X\	2	>
.	.	16ggg#\	4	.
.	.	16fff#\JJ	3	.
.	.	16eeen\LL	2	.
.	.	16ddd\	1	.
.	.	16ccc#\	3	.
.	.	16bb\JJ	2	]]
!!LO:LB:g=original	!	!	!	!
=71	=71	=71	=71	=71
*	*	*^	*	*
4c#/	4	8aa/L	4ee\	1 3	p
.	.	16gg#/L	.	.	.
.	.	16aa/JJ	.	.	.
8d/L	3	16bb/LL	8ff#\L	1 4	.
.	.	16ccc#/	.	.	.
8d#X/J	2	16ff#/ 16bb	8ff#\J	.	.
.	.	16aa/JJ	.	.	.
*	*	*v	*v	*	*
=72	=72	=72	=72	=72
16e/LL	1	4ee\ 4gg#	1 2	.
16e/	.	.	.	.
16d#X/	.	.	.	.
16e/JJ	.	.	.	.
16dn/LL	2	4r	.	.
16e/	.	.	.	.
16B/	4	.	.	.
16e/JJ	.	.	.	.
=73	=73	=73	=73	=73
*^	*	*^	*	*
16A/LL	4A\	5	8ee/L	4cc#\	1 2	pp
16fn/	.	.	.	.	.	.
16e/	.	.	8aa/	.	5	.
16f/JJ	.	.	.	.	.	.
16c#/LL 16e	8c#\	2 4	8gg#/	8ee\L	2 4	.
16f/	.	.	.	.	.	.
16e/	8r	.	8ee/J	8cc#\J	1 2	.
16d#X/JJ	.	3	.	.	.	.
*v	*v	*	*	*	*	*
*	*	*v	*v	*	*
=74	=74	=74	=74	=74
16dn/LL	4	2dd\ 2ff#	1 3	.
16e/	1	.	.	.
16d/	2	.	.	.
16c#/JJ	3	.	.	.
16B/LL	4	.	.	.
16A/	5	.	.	.
16B/	.	.	.	.
16B#X/JJ	3	.	.	.
!!LO:LB:g=original	!	!	!	!
=75	=75	=75	=75	=75
16c#/LL	2	8a/L 8ee	.	.
16e/	1	.	.	.
16f#/	2	16.a/L	1	.
16fn/JJ	1	.	.	.
.	.	32b/JJk	3	.
16e/LL	2	8a\L 8cc#	1 4	.
16d#X/	3	.	.	.
16dn/	4	8g#\J 8b	2 3	.
16e/JJ	1	.	.	.
=76	=76	=76	=76	=76
16c#/LL	3	[4a\ [4ee	1 5	.
16d/	.	.	.	.
16c#/	.	.	.	.
16d/JJ	.	.	.	.
8c#/	.	8a\] 8ee]	.	.
8r	.	8r	.	.
*clefF4	*	*	*	*
=77	=77	=77	=77	=77
*	*	*^	*	*
(16A\LL	4	8cc#/L	8a\L	3 5	pp
16c#\J	.	.	.	.	.
8d\J)	.	16.a/L	8f#\J	.	.
.	.	32b/JJk	.	.	.
(16A\LL	.	8cc#/L	8a\L	.	.
16c#\J	.	.	.	.	.
8d\J)	.	16.a/L	8f#\J	.	.
.	.	32b/JJk	.	.	.
*	*	*v	*v	*	*
=78	=78	=78	=78	=78
(16A\LL	2	[4a\ [4cc#	.	.
16B\	.	.	.	.
16A\	.	.	.	.
16B\JJ	.	.	.	.
8A\)	.	8a\] 8cc#]	.	.
8r	.	8r	.	.
!!LO:LB:g=original	!	!	!	!
=79	=79	=79	=79	=79
8Fn\L	1	(<2B/ (<2d [>2a	.	ppp
16.D\L	3	.	.	.
32E\JJk	.	.	.	.
8F\L	.	.	.	.
8D\J	3	.	.	.
=80	=80	=80	=80	=80
8E\L	2	4c#/) 4e) 4a]	.	.
16.C#\L	4	.	.	.
32D\JJk	3	.	.	.
4E\	2	4r	.	.
*	*	*clefF4	*	*
=81	=81	=81	=81	=81
!	!	!LO:TX:b:i:t=rit.	!	!
8EE/L	1	4r	.	.
16.CC#/L	3	.	.	.
32DD/JJk	2	.	.	.
(4EE/	1	8r	.	.
.	.	(<8D\ (<8G# (>8B	.	ppp
=82	=82	=82	=82	=82
4AAA/)	5	4C#\)) 4A)	.	.
8r	.	8r	.	.
8AAA/ 8AA	.	8C#\ 8A	.	ppp
=83	=83	=83	=83	=83
2AAA;/ 2AA	.	2C#;\ 2A	.	.
==	==	==	==	==
*-	*-	*-	*-	*-
!!!system-decoration: {(s1,s2)}
!!!RDF**kern: > = above
!!!RDF**kern: < = below
!!!RDF**kern: N = linked
!!!ENC: Andrzej Gręziak
!!!END: 2023-10-11
!!!EED: Jan Barakat
!!!EEV: 2023-10-25
